img/footer/footer-vk.svg

<svg width="30" height="18" viewBox="0 0 30 18" fill="none" xmlns="http://www.w3.org/2000/svg">
<path d="M24.8946 10.3217C24.4096 9.69171 24.5484 9.41143 24.8946 8.84829C24.9009 8.84186 28.9047 3.15129 29.3173 1.22143L29.3198 1.22014C29.5248 0.516857 29.3198 0 28.3285 0H25.0484C24.2133 0 23.8283 0.443571 23.6221 0.939857C23.6221 0.939857 21.952 5.05157 19.5894 7.71686C18.8269 8.487 18.4744 8.73386 18.0581 8.73386C17.8531 8.73386 17.5344 8.487 17.5344 7.78371V1.22014C17.5344 0.376714 17.3006 0 16.6093 0H11.4516C10.9279 0 10.6166 0.393429 10.6166 0.759857C10.6166 1.55957 11.7979 1.74343 11.9204 3.99343V8.87529C11.9204 9.945 11.7317 10.1417 11.3129 10.1417C10.1979 10.1417 7.49151 6.01329 5.8877 1.28829C5.56394 0.371571 5.24768 0.00128562 4.4064 0.00128562H1.12504C0.188756 0.00128562 0 0.444857 0 0.941143C0 1.818 1.11504 6.17786 5.18518 11.9379C7.89777 15.8696 11.7179 18 15.193 18C17.2818 18 17.5369 17.5269 17.5369 16.713C17.5369 12.9561 17.3481 12.6013 18.3944 12.6013C18.8794 12.6013 19.7144 12.8481 21.6645 14.7446C23.8933 16.9933 24.2596 18 25.5071 18H28.7872C29.7223 18 30.196 17.5269 29.9235 16.5934C29.2998 14.6301 25.0846 10.5917 24.8946 10.3217Z" fill="#313131"/>
</svg>

<svg width="30" height="18" fill="none" xmlns="http://www.w3.org/2000/svg"><path d="M24.895 10.322c-.485-.63-.347-.91 0-1.474.006-.006 4.01-5.697 4.422-7.627h.003C29.525.516 29.32 0 28.328 0h-3.28c-.835 0-1.22.444-1.426.94 0 0-1.67 4.112-4.033 6.777-.762.77-1.115 1.017-1.53 1.017-.206 0-.525-.247-.525-.95V1.22c0-.843-.233-1.22-.925-1.22h-5.157c-.524 0-.835.393-.835.76 0 .8 1.18.983 1.303 3.233v4.882c0 1.07-.188 1.267-.607 1.267-1.115 0-3.821-4.129-5.425-8.854C5.564.372 5.248.001 4.406.001H1.125C.189.001 0 .445 0 .941c0 .877 1.115 5.237 5.185 10.997C7.898 15.87 11.718 18 15.193 18c2.089 0 2.344-.473 2.344-1.287 0-3.757-.189-4.112.857-4.112.485 0 1.32.247 3.27 2.144C23.895 16.993 24.26 18 25.508 18h3.28c.935 0 1.409-.473 1.137-1.407-.624-1.963-4.84-6.001-5.03-6.271z" fill="#313131"/></svg>
